X:1
T:Evelyns, 11.11.11.11
T:Evelyns, 11.11.11.11
T:William Henry Monk, 1875
T:Public Domain Courtesy of the Cyber Hymnal™
C:William Henry Monk, 1875
Z:Public Domain
Z:Courtesy of the Cyber Hymnal™
%%score ( 1 2 ) ( 3 4 )
L:1/8
Q:1/4=115
M:4/4
K:E
V:1 treble 
V:2 treble 
V:3 bass 
V:4 bass 
V:1
 [EG]2 [EB]2 [Ec]2 [EB]2 | [Ee]4 B4 | [EA]2 [EG]2 [EF]2 z E | E8 | E2 [CG]2 [CA]2 [CG]2 | %5
 (F2 G2) E4 | [Cc]2 [EB]2 [DG]2 E2 | ([EG]4 [DF]4) | [DB]2 [DB]2 [Dc]2 [DB]2 | [Ee]4 [Fd]4 | %10
 [Gc]2 [FB]2 [Fd]2 [Ec]2 | [DB]8 | E2 [EB]2 [EA]2 [EG]2 | [Ec]4 F4 | [EB]2 E2 [EG]2 [DF]2 | E8 |] %16
V:2
 x8 | x4 (E2 F2) | x6 D2 | E8 | E2 x6 | D4 E2 D2 | x6 E2 | x8 | x8 | x8 | x8 | x8 | E2 x6 | %13
 x4 (E2 D2) | x2 E2 x4 | E8 |] %16
V:3
 [E,B,]2 [E,G,]2 A,2 [G,B,]2 | (B,2 A,2) [E,G,]2 [D,B,]2 | [C,E,]2 [B,,G,]2 [A,,C]2 [B,,B,]2 | %3
 [E,G,]8 | [C,G,]2 [C,E,]2 F,2 [C,E,]2 | [C,A,]2 [^B,,G,]2 G,4 | [A,,A,]2 [E,G,]2 [B,,G,]2 (G,A,) | %7
 [B,,B,]8 | B,2 B,2 [A,B,]2 [A,B,]2 | [G,B,]2 [C,^A,]2 B,4 | (G,^A,) B,2 [F,B,]2 [F,A,]2 | %11
 (B,4 A,4) | [C,G,]2 [=D,G,]2 [C,A,]2 [B,,B,]2 | [^A,,F,]4 [B,,F,]4 | %14
 [G,,G,]2 [C,G,]2 [B,,B,]2 [B,,A,]2 | [E,G,]8 |] %16
V:4
 x4 A,2 x2 | C,4 x4 | x8 | x8 | x4 F,2 x2 | x4 (C,2 =B,,2) | x6 C,2 | x8 | B,2 B,2 x4 | %9
 x4 (B,,2 D,2) | E,2 (D,E,) x4 | B,,8 | x8 | x8 | x8 | x8 |] %16

